X: 21542
T: Kildare Fancy, The
R: hornpipe
M: 4/4
K: Dmajor
|:d>B|A>FD>F A>Fd>B|(3ABA A>d {f/g/}f>ed>c|B>Ae>f g>ef>d|e>dc>B A2 d>B|
A>FD>F [F3/2A3/2]F/d>B|(3ABA [F3/2A3/2]d/ {f/g/}f>ed>c|B>Ae>f g>ef>d|e>c (3ABc d2-:|
|:d>e|f>dc>d (3Bcd A>F|D>dc>d f>dc>d|[A3/2e3/2]A/ (3AAA f>A (3AAA|(3efe (3dcB {A/B/}A2 d>e|
f>dc>d (3Bcd A>F|D>dc>d f>dc>d|[A3/2e3/2]A/ g>Af>A|e>c (3ABc d2:|

